X: 1
P: I AB AC AD AE A ...
M: 3/4
L: 1/8
K: C
"Intro"| [gB]z [g4B4] | [fA][ac] [g4B4] ||
"A"\
|: "C"c>d e2 e2 | e>f g2 g2 | "G7"c'z g3 f | "C"e2 d2 c2 \
| "G7"B>c d2 d2 | d>e f2 f2 |1 "G7"az g3 B | f2 "C"e4 :|2 "G7"az g3 [bdB] | [d'2f2d2] "C"[c'4e4c4] |]
K:G
"B"\
|: "G"z2 de d2- | d2 de d2 | "D7"e2 d3 c | "G"d3 c B2 \
|  "G"z2 de d2- | d2 de d2 | "D7"c2 B2 c2 |1 "G"dg ed B2 :|2 "G"B4 z2 |]
"C"\
|: "G"d3 B d3 | "C"ce cB A2 | "D7"c3 A c2 | "G"Bd BA G2 \
|  "G"d3 B d3 | "C"ce cB AG | "D7"FG AB cF | "G"G2 G2 z2 |]
"D"\
|: "G"D4 G2 | B6 | "D7"c2 B3 A | "G"B3 A G2 \
| "D7"A6 | D6 | A2 G2 A2 |1 "G"B6 :|2 "G"G4 z2 |]
"E"\
|: "G"z2 DG Bd | "C"c6 | "D7"z2 DF Ac | "G"B6 \
|  "G"z2 DG Bd | "C"c6 | "D7"d2 c2 A2 | "G"G2 G2 z2 |]
